X:2767
T:I Himmelen
O:england
C:Triakel
M:3/4
L:1/4
K:G
D|G2B|D>F A/G/|ECE|D2c|B2G|A2F|G3-|G2D|\
G2B|D>F A/G/|ECE|D2c|B>d B/G/|A>G F/A/|
G3-|G|]FG|A>G F/E/|D2c|BGB|A2 F/G/|\
A>G F/E/|D2c|BGB|A2D|E2G|F2A|G3-|G2|]


